X:111
T:Comb Your Hair and Curl It
R:hop jig
H:See also #9
D:Catherine McEvoy, Caoimh\'in \'O Raghallaigh & M\'iche\'al \'O Raghallaigh: Comb Your Hair and Curl It
Z:id:hn-slipjig-111
M:9/8
L:1/8
K:Edor
B2E E2F G2A | Bcd e2c d2c | B2E E2F G2A | Bcd A2F G2E :|
|: g2e e2d e2g | f2d d2c d2f | g2e e2d e2d | Bcd A2F G2E :|

